X:3
T:The Banks of the Lossie
T:Thirds
C:Scots Guards Vol. II
R:Retreat March
M:9/8
L:1/8
K:D
[|: {gf}g | a2 {GdG}a {fg}f3 {ag}a2 g | {fg}f>{g}ef {Gdc}d2 {e}A3 | {g}A>Bd {gfg}f3 {ag}a2 f | a>fd {gef}e3 {A}e2 {gf}g |
a2 {GdG}a {fg}f3 {ag}a2 g | {fg}f>{g}ef {Gdc}d3 {e}A3 | {g}A>Bd {gfg}f3 {ag}a2 A | {g}A>{d}ce {Gdc}d3 {gdG}d2 {gf}g |
{a}(A6 A2) d | {g}A3 {d}B3 {e}A3 | {g}A2 {G}A {g}(d3 d2) a | d6 {g}(c3 | c3) {g}(B3 b2) {d}B |
{g}A3 {d}B3 {e}A3 | {g}A2 {G}a {g}(d3 d2) a | B3 {g}(A3 A2) ||
[| f | {g}A>Bd {gdG}d3 {e}A2 d | {g}B<{d}A{d}B {Gdc}d3 {e}A2 f | {gf}g>fe {gfg}f3 {ag}a2 f | a>fd {gef}e3 {A}e2 f |
{gf}g>fe {gfg}f3 {ag}a2 f | a>fd {gBd}B3 {e}G2 {d}B | {g}A>Bd {gfg}f3 {ag}a2 A | {g}A>{d}ce {Gdc}d3 {gdG}d2 f |
{g}d2 B {e}(A3 A2) d | {g}A2 e {g}(f3 f2) d | {g}B3 A3 {g}(d3 | d6) c3 | 
{g}B3 d6 | {g}e<Ag {a}(g3 g2) B | {g}A2{G}A {g}(d3 d2)A | {g}B3 {G}A6 |]

